sledding.svg

<svg fill="currentColor" viewBox="0 0 24 24"><path d="M22.91 16.64a4.1 4.1 0 0 0-.94-1.83 3.8 3.8 0 0 0-1.77-1.12l-.43 1.45c.66.19 1.14.59 1.46 1.22.31.64.35 1.26.14 1.91-.22.66-.64 1.14-1.25 1.46s-1.24.35-1.89.13l-3.33-1.07.47-1.41 3.33 1.08.46-1.46-1.96-.6-2.06-4.49c-.19-.41-.48-.72-.87-.94s-.82-.3-1.27-.23l-2.12.37 1.03-3.27c.15-.47.12-.93-.1-1.34-.21-.46-.57-.76-1.07-.91-.41-.13-.83-.09-1.27.09L4 8v4.1l-1.6-.52L1.94 13l3.93 1.3-.47 1.4-3.93-1.26-.47 1.4 16.76 5.48c.69.22 1.37.25 2.06.09.68-.15 1.3-.47 1.83-.91.53-.5.9-1.07 1.12-1.76.23-.74.3-1.42.14-2.1M6 9.33l1.93-.83-1.03 3.17c-.16.47-.11.94.14 1.41L6 12.75zm7.5 8.99-6.69-2.15.46-1.41 6.65 2.16zm-4.03-4.45 3.98-.87 1.17 2.56zM14 3c0 1.11-.89 2-2 2s-2-.89-2-2 .9-2 2-2 2 .9 2 2"/></svg>

<svg  viewBox="0 0 24 24" fill="currentColor"><path  d="M22.91 16.64C22.75 15.95 22.44 15.34 21.97 14.81C21.5 14.28 20.91 13.91 20.2 13.69L19.77 15.14C20.43 15.33 20.91 15.73 21.23 16.36C21.54 17 21.58 17.62 21.37 18.27C21.15 18.93 20.73 19.41 20.12 19.73S18.88 20.08 18.23 19.86L14.9 18.79L15.37 17.38L18.7 18.46L19.16 17L17.2 16.4L15.14 11.91C14.95 11.5 14.66 11.19 14.27 10.97C13.88 10.75 13.45 10.67 13 10.74L10.88 11.11L11.91 7.84C12.06 7.37 12.03 6.91 11.81 6.5C11.6 6.04 11.24 5.74 10.74 5.59C10.33 5.46 9.91 5.5 9.47 5.68L4 8V12.1L2.4 11.58L1.94 13L5.87 14.3L5.4 15.7L1.47 14.44L1 15.84L17.76 21.32C18.45 21.54 19.13 21.57 19.82 21.41C20.5 21.26 21.12 20.94 21.65 20.5C22.18 20 22.55 19.43 22.77 18.74C23 18 23.07 17.32 22.91 16.64M6 9.33L7.93 8.5L6.9 11.67C6.74 12.14 6.79 12.61 7.04 13.08L6 12.75V9.33M13.5 18.32L6.81 16.17L7.27 14.76L13.92 16.92L13.5 18.32M9.47 13.87L13.45 13L14.62 15.56L9.47 13.87M14 3C14 4.11 13.11 5 12 5S10 4.11 10 3 10.9 1 12 1 14 1.9 14 3Z"/></svg>
